Resources/icons/CommandPanel_AddMenu.svg

<?xml version="1.0" encoding="UTF-8" standalone="no"?>
<svg
   xmlns:dc="http://purl.org/dc/elements/1.1/"
   xmlns:cc="http://creativecommons.org/ns#"
   xmlns:rdf="http://www.w3.org/1999/02/22-rdf-syntax-ns#"
   xmlns:svg="http://www.w3.org/2000/svg"
   xmlns="http://www.w3.org/2000/svg"
   xmlns:xlink="http://www.w3.org/1999/xlink"
   version="1.1"
   id="svg2"
   viewBox="0 0 64.000001 64.000001"
   height="64"
   width="64">
  <defs
     id="defs4">
    <linearGradient
       id="linearGradient4231">
      <stop
         style="stop-color:#ffffff;stop-opacity:1;"
         offset="0"
         id="stop4233" />
      <stop
         style="stop-color:#ffffff;stop-opacity:0;"
         offset="1"
         id="stop4235" />
    </linearGradient>
    <symbol
       id="a" />
    <linearGradient
       gradientTransform="matrix(0,-1,1,0,0,64)"
       xlink:href="#linearGradient4231"
       id="linearGradient4237"
       x1="32"
       y1="32"
       x2="36.75"
       y2="32"
       gradientUnits="userSpaceOnUse" />
    <linearGradient
       gradientTransform="matrix(0,-1,1,0,0,44)"
       xlink:href="#linearGradient4231"
       id="linearGradient4280"
       gradientUnits="userSpaceOnUse"
       x1="32"
       y1="32"
       x2="36.75"
       y2="32" />
    <linearGradient
       gradientTransform="matrix(0,-1,1,0,0,84)"
       xlink:href="#linearGradient4231"
       id="linearGradient4282"
       gradientUnits="userSpaceOnUse"
       x1="32"
       y1="32"
       x2="36.75"
       y2="32" />
  </defs>
  <metadata
     id="metadata7">
    <rdf:RDF>
      <cc:Work
         rdf:about="">
        <dc:format>image/svg+xml</dc:format>
        <dc:type
           rdf:resource="http://purl.org/dc/dcmitype/StillImage" />
        <dc:title></dc:title>
      </cc:Work>
    </rdf:RDF>
  </metadata>
  <g
     transform="matrix(-0.70711,-0.65271694,0.70711,-0.65271694,33.07204,75.148001)"
     id="g4159">
    <use
       x="0"
       y="0"
       width="100%"
       height="100%"
       xlink:href="#a"
       id="use4161" />
  </g>
  <g
     id="g4725"
     transform="matrix(-0.70711,-0.65271694,0.70711,-0.65271694,1.0754,126.05969)">
    <use
       id="use4727"
       xlink:href="#a"
       height="100%"
       width="100%"
       y="0"
       x="0" />
  </g>
  <path
     id="rect3357"
     d="m 6,32 c -0.1808428,3.686248 3.6729467,6.530526 7,6 12.666667,0 25.333333,0 38,0 3.320608,0.53385 7.182273,-2.313367 7,-6 0.180843,-3.686248 -3.672947,-6.530526 -7,-6 -12.666667,0 -25.333333,0 -38,0 -3.3954983,-0.503732 -7.1172747,2.25932 -7,6 z"
     style="fill:#729fcf;stroke:#333333;stroke-width:1.99999964;stroke-linejoin:round;stroke-miterlimit:4;stroke-dasharray:none" />
  <path
     id="path4202"
     d="m 7.9999999,32 c 0.1545404,3.109091 3.9553301,4.254512 6.4615381,4 11.692308,0 23.384616,0 35.076924,0 C 52.038743,36.256237 55.847189,35.109181 56,32 55.84546,28.890909 52.04467,27.745488 49.538462,28 37.846154,28 26.153846,28 14.461538,28 11.961725,27.776838 8.1449112,28.853594 7.9999999,32 Z"
     style="opacity:0.4;fill:none;stroke:#ffffff;stroke-width:1.99999976;stroke-linejoin:round;stroke-miterlimit:4;stroke-dasharray:none" />
  <path
     id="path4226"
     d="m 7,32 c 16.666667,0 33.333333,0 50,0 0.04886,-3.419474 -3.826608,-5.409142 -6.730469,-5 C 38.089844,27 25.910156,27 13.730469,27 10.789866,26.624548 6.9820506,28.529857 7,32 Z"
     style="opacity:0.3;fill:url(#linearGradient4237);fill-opacity:1;stroke:none;stroke-width:1.99999976;stroke-linejoin:round;stroke-miterlimit:4;stroke-dasharray:none" />
  <g
     id="g4250"
     transform="matrix(-0.70711,-0.65271694,0.70711,-0.65271694,33.07204,95.148001)">
    <use
       id="use4252"
       xlink:href="#a"
       height="100%"
       width="100%"
       y="0"
       x="0" />
  </g>
  <g
     transform="matrix(-0.70711,-0.65271694,0.70711,-0.65271694,1.0754,146.05969)"
     id="g4254">
    <use
       x="0"
       y="0"
       width="100%"
       height="100%"
       xlink:href="#a"
       id="use4256" />
  </g>
  <path
     id="path4258"
     d="m 6,52 c -0.1808428,3.686248 3.6729467,6.530526 7,6 12.666667,0 25.333333,0 38,0 3.320608,0.53385 7.182273,-2.313367 7,-6 0.180843,-3.686248 -3.672947,-6.530526 -7,-6 -12.666667,0 -25.333333,0 -38,0 -3.3954983,-0.503732 -7.1172747,2.25932 -7,6 z"
     style="fill:#729fcf;stroke:#333333;stroke-width:1.99999964;stroke-linejoin:round;stroke-miterlimit:4;stroke-dasharray:none" />
  <path
     id="path4260"
     d="m 7.9999999,52 c 0.1545404,3.109091 3.9553301,4.254512 6.4615381,4 11.692308,0 23.384616,0 35.076924,0 C 52.038743,56.256237 55.847189,55.109181 56,52 55.84546,48.890909 52.04467,47.745488 49.538462,48 37.846154,48 26.153846,48 14.461538,48 11.961725,47.776838 8.1449112,48.853594 7.9999999,52 Z"
     style="opacity:0.4;fill:none;stroke:#ffffff;stroke-width:1.99999976;stroke-linejoin:round;stroke-miterlimit:4;stroke-dasharray:none" />
  <path
     id="path4262"
     d="m 7,52 c 16.666667,0 33.333333,0 50,0 0.04886,-3.419474 -3.826608,-5.409142 -6.730469,-5 C 38.089844,47 25.910156,47 13.730469,47 10.789866,46.624548 6.9820506,48.529857 7,52 Z"
     style="opacity:0.3;fill:url(#linearGradient4282);fill-opacity:1;stroke:none;stroke-width:1.99999976;stroke-linejoin:round;stroke-miterlimit:4;stroke-dasharray:none" />
  <g
     transform="matrix(-0.70711,-0.65271694,0.70711,-0.65271694,33.07204,55.148001)"
     id="g4266">
    <use
       x="0"
       y="0"
       width="100%"
       height="100%"
       xlink:href="#a"
       id="use4268" />
  </g>
  <g
     id="g4270"
     transform="matrix(-0.70711,-0.65271694,0.70711,-0.65271694,1.0754,106.05969)">
    <use
       id="use4272"
       xlink:href="#a"
       height="100%"
       width="100%"
       y="0"
       x="0" />
  </g>
  <path
     id="path4274"
     d="m 6,12 c -0.1808428,3.686248 3.6729467,6.530526 7,6 12.666667,0 25.333333,0 38,0 3.320608,0.53385 7.182273,-2.313367 7,-6 C 58.180843,8.3137525 54.327053,5.4694738 51,6 38.333333,6 25.666667,6 13,6 9.6045094,5.4962672 5.8827236,8.2593172 6,12 Z"
     style="fill:#729fcf;stroke:#333333;stroke-width:1.99999964;stroke-linejoin:round;stroke-miterlimit:4;stroke-dasharray:none" />
  <path
     id="path4276"
     d="m 7.9999999,12 c 0.1545404,3.109091 3.9553301,4.254512 6.4615381,4 11.692308,0 23.384616,0 35.076924,0 C 52.038743,16.256237 55.847189,15.109181 56,12 55.84546,8.8909089 52.04467,7.7454882 49.538462,8 37.846154,8 26.153846,8 14.461538,8 11.961725,7.7768376 8.1449112,8.8535943 7.9999999,12 Z"
     style="opacity:0.4;fill:none;stroke:#ffffff;stroke-width:1.99999976;stroke-linejoin:round;stroke-miterlimit:4;stroke-dasharray:none" />
  <path
     id="path4278"
     d="m 7,12 c 16.666667,0 33.333333,0 50,0 C 57.04886,8.5805259 53.173392,6.5908583 50.269531,7 38.089844,7 25.910156,7 13.730469,7 10.789866,6.6245482 6.9820506,8.5298568 7,12 Z"
     style="opacity:0.3;fill:url(#linearGradient4280);fill-opacity:1;stroke:none;stroke-width:1.99999976;stroke-linejoin:round;stroke-miterlimit:4;stroke-dasharray:none" />
</svg>

<svg id="svg2" xmlns:rdf="http://www.w3.org/1999/02/22-rdf-syntax-ns#" xmlns="http://www.w3.org/2000/svg" viewBox="0 0 64.000001 64.000001" height="64" width="64" version="1.1" xmlns:cc="http://creativecommons.org/ns#" xmlns:xlink="http://www.w3.org/1999/xlink" xmlns:dc="http://purl.org/dc/elements/1.1/">
 <defs id="defs4">
  <linearGradient id="linearGradient4231">
   <stop id="stop4233" stop-color="#fff" offset="0"/>
   <stop id="stop4235" stop-color="#fff" stop-opacity="0" offset="1"/>
  </linearGradient>
  <linearGradient id="linearGradient4237" y2="32" xlink:href="#linearGradient4231" gradientUnits="userSpaceOnUse" x2="36.75" gradientTransform="matrix(0,-1,1,0,0,64)" y1="32" x1="32"/>
  <linearGradient id="linearGradient4280" y2="32" xlink:href="#linearGradient4231" gradientUnits="userSpaceOnUse" x2="36.75" gradientTransform="matrix(0,-1,1,0,0,44)" y1="32" x1="32"/>
  <linearGradient id="linearGradient4282" y2="32" xlink:href="#linearGradient4231" gradientUnits="userSpaceOnUse" x2="36.75" gradientTransform="matrix(0,-1,1,0,0,84)" y1="32" x1="32"/>
 </defs>
 <path id="rect3357" stroke-linejoin="round" d="m6 32c-0.18084 3.6862 3.6729 6.5305 7 6h38c3.3206 0.53385 7.1823-2.3134 7-6 0.18084-3.6862-3.6729-6.5305-7-6h-38c-3.3955-0.50373-7.1173 2.2593-7 6z" stroke="#333" stroke-width="2" fill="#729fcf"/>
 <path id="path4202" opacity=".4" stroke-linejoin="round" d="m8 32c0.15454 3.1091 3.9553 4.2545 6.4615 4h35.077c2.501 0.256 6.309-0.891 6.462-4-0.155-3.109-3.955-4.255-6.462-4h-35.076c-2.5-0.223-6.3171 0.854-6.462 4z" stroke="#fff" stroke-width="2" fill="none"/>
 <path id="path4226" opacity=".3" d="m7 32h50c0.04886-3.4195-3.8266-5.4091-6.7305-5h-36.54c-2.94-0.375-6.7479 1.53-6.73 5z" fill="url(#linearGradient4237)"/>
 <path id="path4258" stroke-linejoin="round" d="m6 52c-0.18084 3.6862 3.6729 6.5305 7 6h38c3.3206 0.53385 7.1823-2.3134 7-6 0.18084-3.6862-3.6729-6.5305-7-6h-38c-3.3955-0.50373-7.1173 2.2593-7 6z" stroke="#333" stroke-width="2" fill="#729fcf"/>
 <path id="path4260" opacity=".4" stroke-linejoin="round" d="m8 52c0.15454 3.1091 3.9553 4.2545 6.4615 4h35.077c2.501 0.256 6.309-0.891 6.462-4-0.155-3.109-3.955-4.255-6.462-4h-35.076c-2.5-0.223-6.3171 0.854-6.462 4z" stroke="#fff" stroke-width="2" fill="none"/>
 <path id="path4262" opacity=".3" d="m7 52h50c0.04886-3.4195-3.8266-5.4091-6.7305-5h-36.54c-2.94-0.375-6.7479 1.53-6.73 5z" fill="url(#linearGradient4282)"/>
 <path id="path4274" stroke-linejoin="round" d="m6 12c-0.18084 3.6862 3.6729 6.5305 7 6h38c3.3206 0.53385 7.1823-2.3134 7-6 0.181-3.6862-3.673-6.5305-7-6h-38c-3.3955-0.5037-7.1173 2.2593-7 6z" stroke="#333" stroke-width="2" fill="#729fcf"/>
 <path id="path4276" opacity=".4" stroke-linejoin="round" d="m8 12c0.15454 3.1091 3.9553 4.2545 6.4615 4h35.077c2.501 0.256 6.309-0.891 6.462-4-0.155-3.1091-3.955-4.2545-6.462-4h-35.076c-2.5-0.2232-6.3171 0.8536-6.462 4z" stroke="#fff" stroke-width="2" fill="none"/>
 <path id="path4278" opacity=".3" d="m7 12h50c0.049-3.4195-3.827-5.4091-6.73-5h-36.54c-2.94-0.3755-6.7479 1.5299-6.73 5z" fill="url(#linearGradient4280)"/>
</svg>
